X:41
T:Akta dig f\"or flickor
R:schottis
H:efter Axel Andersson, Nyk\"oping
A:S\"ormland
Z:id:hn-schottis-40
M:C|
L:1/8
K:G
GABc d2g2 | GABc d2g2 | a2ag f2ef | g2fe dcBA |
GABc d2g2 | GABc d2g2 | a2ag f2ef | g2g2 g4 :|
K:D
a2fd A2df | a2gf g2g2 | g2ec A2ce | g2fe f2f2 |
a2fd A2df | a2ga bagf | edcB Agfe | d2d2 d4 :|
<end>
<start>
